X: 24849
T: Maggie's Pancakes
R: reel
M: 4/4
K: Gminor
|:"Gm"BG G2 dedc|"Eb"BG G2 EGBG|"F"AFFB FFcF|FdFF "Dm"cAFA|
"Gm"BG G2 dedc|"Eb"BG G2 EGBG|"F"AFGA FA A2|1 "Dm"cdcA "Gm"G3 A:|2 "Dm"cdcA "Gm"GABc||
|:"Gm"d2 BG "Eb"EGBG|"F"AfcA BG G2|"Gm"d2 BG "Eb"EGBG|"Dm"AfcA GABc|
"B"dB B2 dedc|"Eb"BG G2 EGBG|"F"AFGA FA A2|1 "Dm"cdcA "Gm"GABc:|2 "Dm"cdcA "Gm"G4||

